X:70   
T:Le vieillard et la vieille dame
C:Trad
O: Qu\'ebec
Q:1/4=120 
R:reel
M:2/4 
L:1/16  
K:D
FG |:ABAF DFAF |GFGB E2ed |cdcB ABcA |dedB A2FG |ABAF DFAF |GFGB E2ed |cdcB ABcA |dfec d2FG ::AddA d2cB |AccA c2BA |GBBG B2AG |FGAB F2FG |AddA d2cB |AccA c2BA |GBBG B2AG |Acec d2FG :|
